X:3031
T:Carolan's Welcome
T:O'Carolan's Welcome
T:Carolan's Air
R:Air
C:Turlough O'Carolan (1670-1738)
O:Ireland
Z:Paul Hardy's Session Tunebook 2015 (see www.paulhardy.net). Creative Commons cc by-nc-sa licenced.
M:3/4
L:1/8
Q:1/4=90
K:Em
GF|"Em"E2 GA B2|E2 G>A B2|"Am"AB AG FE|"Bm"D/2E/2F D2 B,2|"Em"G3 F E2|"Am"A3 G F2|"Bm"GB B,2 D2|"Em"E4 GF||
"Em"E2 GA B2|E2 G>A B2|"Am"AB AG FE|"Bm"D/2E/2F D2 B,2|"G"d3 c B2|"C"e3 d BA|"Bm"GB AG FG|"Em"E4||
B2|"Em"B2 ef g2|B2 e>f g2|"D7"gf ed ef|"G"g2 B2 B2|"Am"c2 ec BA|"G"B2 dB AG|"Bm"A2 B2 d2|"Em"e6||
"C"ed Bd e2|"G"dB AB d2|BA GA BG|"D"A2 F2 D2|"Em"G3 F E2|"Am"A3 G F2|"Bm"GB B,2 D2|"Em"E4|]

